X:44
T:John Gaffney fling ou The watchmaker
D:Patrick Street-Irish times
C:fling
M:4/4
L:1/8
K:G
e |: c<a a>c B<g g>B | c<a a>B cded |
c<a a>c B<g g>B |1 c/B/A B>G E<a ab :|2 c/b/a>G E<a a>B ||
c2 e>c ge d/c/A | G<g b>G D>G B>G |
c<c e>c g>c e>c | e<a a>g e<a a>b |
g<e e>g f<d d>=f | ecce dBGB |
ABcd e=fed |c/B/A BG A3B||
